brandFactory_export/2.Regular/Microchip_2Regular.svg

<?xml version="1.0" encoding="UTF-8"?>
<svg width="24px" height="24px" viewBox="0 0 24 24" version="1.1" xmlns="http://www.w3.org/2000/svg" xmlns:xlink="http://www.w3.org/1999/xlink">
    <title>2.Regular/Microchip_2Regular</title>
    <g id="Symbols" stroke="none" stroke-width="1" fill="none" fill-rule="evenodd">
        <g id="2.Regular/Microchip_2Regular" fill="#5CB615" fill-rule="nonzero">
            <path d="M18.2420168,18.3697479 L5.38823529,18.3697479 C5.33445378,18.3697479 5.28067227,18.3226891 5.27394958,18.3193277 L5.27394958,14.7294118 L5.27394958,14.7226891 L5.27394958,11.8285714 C5.27394958,11.8252101 5.27731092,11.8218487 5.27731092,11.8151261 C5.27731092,11.8117647 5.27394958,11.8084034 5.27394958,11.805042 L5.27058824,8.92773109 C5.27058824,8.9210084 5.27394958,8.91764706 5.27394958,8.91092437 C5.27394958,8.90420168 5.27058824,8.90084034 5.27058824,8.89411765 L5.27058824,5.37815126 C5.28403361,5.34117647 5.35462185,5.28739496 5.39159664,5.28739496 L18.2453782,5.28739496 C18.2789916,5.2907563 18.3428571,5.33445378 18.3630252,5.37142857 L18.3630252,11.8084034 C18.3630252,11.8117647 18.3596639,11.8151261 18.3596639,11.8184874 C18.3596639,11.8218487 18.3630252,11.8252101 18.3630252,11.8285714 L18.3630252,14.7159664 C18.3630252,14.7193277 18.3596639,14.7226891 18.3596639,14.7294118 C18.3596639,14.7327731 18.3630252,14.7394958 18.3630252,14.7428571 L18.3630252,18.2991597 C18.3495798,18.3226891 18.2890756,18.3697479 18.2420168,18.3697479 L18.2420168,18.3697479 Z M22.897479,12.5411765 C23.297479,12.5411765 23.6235294,12.2151261 23.6235294,11.8151261 C23.6235294,11.4151261 23.297479,11.0890756 22.897479,11.0890756 L19.8151261,11.0890756 L19.8151261,9.63361345 L22.897479,9.63361345 C23.297479,9.63361345 23.6235294,9.30756303 23.6235294,8.90756303 C23.6235294,8.50756303 23.297479,8.18151261 22.897479,8.18151261 L19.8151261,8.18151261 L19.8151261,5.34117647 C19.8151261,4.53445378 19.0823529,3.82857143 18.2453782,3.82857143 L15.4521008,3.82857143 L15.4521008,0.72605042 C15.4521008,0.32605042 15.1260504,0 14.7260504,0 C14.3260504,0 14,0.32605042 14,0.72605042 L14,3.82857143 L12.5445378,3.82857143 L12.5445378,0.72605042 C12.5445378,0.32605042 12.2184874,0 11.8184874,0 C11.4184874,0 11.092437,0.32605042 11.092437,0.72605042 L11.092437,3.82857143 L9.63697479,3.82857143 L9.63697479,0.72605042 C9.63697479,0.32605042 9.31092437,0 8.91092437,0 C8.51092437,0 8.18487395,0.32605042 8.18487395,0.72605042 L8.18487395,3.82857143 L5.39159664,3.82857143 C4.55462185,3.82857143 3.82184874,4.53445378 3.82184874,5.34117647 L3.82184874,8.18151261 L0.729411765,8.18151261 C0.329411765,8.18151261 0.00336134454,8.50756303 0.00336134454,8.90756303 C0.00336134454,9.30756303 0.329411765,9.63361345 0.729411765,9.63361345 L3.82184874,9.63361345 L3.82184874,11.0890756 L0.729411765,11.0890756 C0.329411765,11.0890756 0.00336134454,11.4151261 0.00336134454,11.8151261 C0.00336134454,12.2151261 0.329411765,12.5411765 0.729411765,12.5411765 L3.82184874,12.5411765 L3.82184874,13.9966387 L0.729411765,13.9966387 C0.329411765,13.9966387 0.00336134454,14.3226891 0.00336134454,14.7226891 C0.00336134454,15.1226891 0.329411765,15.4487395 0.729411765,15.4487395 L3.82184874,15.4487395 L3.82184874,18.3193277 C3.82184874,19.1361345 4.54117647,19.8218487 5.39159664,19.8218487 L8.18487395,19.8218487 L8.18487395,22.8941176 C8.18487395,23.2941176 8.51092437,23.6201681 8.91092437,23.6201681 C9.31092437,23.6201681 9.63697479,23.2941176 9.63697479,22.8941176 L9.63697479,19.8218487 L11.092437,19.8218487 L11.092437,22.8941176 C11.092437,23.2941176 11.4184874,23.6201681 11.8184874,23.6201681 C12.2184874,23.6201681 12.5445378,23.2941176 12.5445378,22.8941176 L12.5445378,19.8218487 L14,19.8218487 L14,22.8941176 C14,23.2941176 14.3260504,23.6201681 14.7260504,23.6201681 C15.1260504,23.6201681 15.4521008,23.2941176 15.4521008,22.8941176 L15.4521008,19.8218487 L18.2453782,19.8218487 C19.0823529,19.8218487 19.8151261,19.1193277 19.8151261,18.3193277 L19.8151261,15.4487395 L22.897479,15.4487395 C23.297479,15.4487395 23.6235294,15.1226891 23.6235294,14.7226891 C23.6235294,14.3226891 23.297479,13.9966387 22.897479,13.9966387 L19.8151261,13.9966387 L19.8151261,12.5411765 L22.897479,12.5411765 Z" id="Microchip_2Regular"></path>
        </g>
    </g>
</svg>

<svg width="24" height="24" viewBox="0 0 24 24" xmlns="http://www.w3.org/2000/svg"><path d="M18.242 18.37H5.388c-.054 0-.107-.047-.114-.05v-6.491c0-.004.003-.007.003-.014l-.003-.01-.003-2.877c0-.007.003-.01.003-.017 0-.007-.003-.01-.003-.017V5.378c.013-.037.084-.09.12-.09h12.854a.204.204 0 01.118.083v6.437c0 .004-.003.007-.003.01 0 .004.003.007.003.01v2.888c0 .003-.003.007-.003.013l.003.014v3.556c-.013.024-.074.07-.121.07zm4.655-5.829c.4 0 .727-.326.727-.726 0-.4-.327-.726-.727-.726h-3.082V9.634h3.082c.4 0 .727-.326.727-.726 0-.4-.327-.726-.727-.726h-3.082v-2.84c0-.808-.733-1.513-1.57-1.513h-2.793V.726c0-.4-.326-.726-.726-.726-.4 0-.726.326-.726.726V3.83h-1.455V.726a.727.727 0 00-1.452 0V3.83H9.636V.726c0-.4-.326-.726-.726-.726-.4 0-.726.326-.726.726V3.83H5.392c-.837 0-1.57.705-1.57 1.512v2.84H.729a.727.727 0 000 1.452h3.093v1.456H.729c-.4 0-.726.326-.726.726 0 .4.326.726.726.726h3.093v1.456H.729c-.4 0-.726.326-.726.726 0 .4.326.726.726.726h3.093v2.87c0 .817.72 1.503 1.57 1.503h2.793v3.072c0 .4.326.726.726.726.4 0 .726-.326.726-.726v-3.072h1.455v3.072c0 .4.326.726.726.726.4 0 .727-.326.727-.726v-3.072H14v3.072c0 .4.326.726.726.726.4 0 .726-.326.726-.726v-3.072h2.793c.837 0 1.57-.703 1.57-1.503v-2.87h3.082c.4 0 .727-.326.727-.726 0-.4-.327-.726-.727-.726h-3.082V12.54h3.082z" fill="#5CB615" fill-rule="nonzero"/></svg>
